X:8
T:RVW2/1/8 Green Lanes-0
T:Sung by Jake Willis (Crimean veteran) at Hadleigh, Sept. 3rd and 4th 1907 (2 of 7)
C:Transcribed by Simon Furey and Lewis Jones
L:1/8
Q:1/4=72
M:3/8
I:linebreak $
K:D
"^(Editorial suggestion) " D | DEF |"^(a)" GAB | AEG | FDA | dcd | GAB | =cdB | A2 A |$ dAB | =cdB | AGG | ADD/D/ | AAA | BGE | FDD | !fermata!D2 ||$ D | DEF |"^(a) var." GFG | AEG | FDA | dcd | GAB | cdB | A2 A |$ dAB | cdB | AGG | ADD/D/ | AAA | BGE | FDD | !fermata!D2 |]

